img/facebook-icon.svg

<svg width="38" height="38" viewBox="0 0 38 38" fill="none" xmlns="http://www.w3.org/2000/svg">
<path d="M18.9975 37.971C29.4829 37.971 37.983 29.4709 37.983 18.9855C37.983 8.5001 29.4829 0 18.9975 0C8.51206 0 0.0119629 8.5001 0.0119629 18.9855C0.0119629 29.4709 8.51206 37.971 18.9975 37.971Z" fill="url(#paint0_linear)"/>
<path d="M37.8597 21.124L24.1262 7.39014L16.9958 14.5206L17.4206 14.9454L13.3608 19.0048L16.6837 22.3276L16.2466 22.7644L19.8441 26.3619L15.6968 30.5091L22.7816 37.594C30.771 35.9772 36.9379 29.3441 37.8597 21.124Z" fill="url(#paint1_linear)"/>
<path d="M15.6779 11.9328C15.6779 12.5152 15.6779 15.1168 15.6779 15.1168H13.3452V19.0104H15.6779V30.5798H20.4696V19.0104H23.6851C23.6851 19.0104 23.9864 17.1431 24.1321 15.1021C23.7136 15.1021 20.4879 15.1021 20.4879 15.1021C20.4879 15.1021 20.4879 12.8367 20.4879 12.4397C20.4879 12.0421 21.0101 11.507 21.5267 11.507C22.0423 11.507 23.1302 11.507 24.1375 11.507C24.1375 10.9764 24.1375 9.14501 24.1375 7.45361C22.7926 7.45361 21.2626 7.45361 20.5877 7.45361C15.5592 7.45337 15.6779 11.3506 15.6779 11.9328Z" fill="white"/>
<defs>
<linearGradient id="paint0_linear" x1="4.5" y1="1.5" x2="35.5" y2="33.5" gradientUnits="userSpaceOnUse">
<stop stop-color="#4CA9F6"/>
<stop offset="1" stop-color="#2666D5"/>
</linearGradient>
<linearGradient id="paint1_linear" x1="18.5" y1="13" x2="30.5" y2="26" gradientUnits="userSpaceOnUse">
<stop stop-color="#2E4D72" stop-opacity="0.51"/>
<stop offset="1" stop-color="#2E4D72" stop-opacity="0"/>
</linearGradient>
</defs>
</svg>

<svg width="38" height="38" fill="none" xmlns="http://www.w3.org/2000/svg"><path d="M18.997 37.971c10.486 0 18.986-8.5 18.986-18.985C37.983 8.5 29.483 0 18.998 0 8.511 0 .011 8.5.011 18.985c0 10.486 8.5 18.986 18.985 18.986z" fill="url(#paint0_linear)"/><path d="M37.86 21.124L24.126 7.39l-7.13 7.13.425.425-4.06 4.06 3.323 3.323-.437.436 3.597 3.598-4.147 4.147 7.085 7.085c7.989-1.617 14.156-8.25 15.078-16.47z" fill="url(#paint1_linear)"/><path d="M15.678 11.933v3.184h-2.333v3.893h2.333v11.57h4.792V19.01h3.215s.301-1.867.447-3.908h-3.644V12.44c0-.398.522-.933 1.039-.933h2.61V7.454h-3.55c-5.028 0-4.91 3.897-4.91 4.479z" fill="#fff"/><defs><linearGradient id="paint0_linear" x1="4.5" y1="1.5" x2="35.5" y2="33.5" gradientUnits="userSpaceOnUse"><stop stop-color="#4CA9F6"/><stop offset="1" stop-color="#2666D5"/></linearGradient><linearGradient id="paint1_linear" x1="18.5" y1="13" x2="30.5" y2="26" gradientUnits="userSpaceOnUse"><stop stop-color="#2E4D72" stop-opacity=".51"/><stop offset="1" stop-color="#2E4D72" stop-opacity="0"/></linearGradient></defs></svg>
